Adwaita++/actions/22/view-form-action.svg

<svg height="22" viewBox="0 0 22 22" width="22" xmlns="http://www.w3.org/2000/svg">
  <path d="m2 1s-.0762406.0041375-.1816406.0234375c-.2042.0302-.3586563.103425-.4726563.203125-.0221.0169-.0434531.0350875-.0644531.0546875-.0196.021-.0376875.0423531-.0546875.0644531-.0996.114-.172925.2684563-.203125.4726563-.0193.1054-.0234375.1816406-.0234375.1816406v12c0 1 1 1 1 1h12s1 0 1-1v-12s-.004437-.0762406-.023438-.1816406c-.031-.2042-.103125-.3586563-.203124-.4726563-.016001-.0221-.035688-.0434531-.054688-.0644531-.021-.0196-.042453-.0377875-.064453-.0546875-.114-.0997-.268656-.172925-.472656-.203125-.106-.0193-.181641-.0234375-.181641-.0234375zm1 3h3v6h-3zm4 1h2v1h-2zm4 0v3h2l-3 4v-3l-2 .0820312z" fill="#444" transform="translate(3 3)"/>
</svg>

<svg xmlns="http://www.w3.org/2000/svg" width="22" height="22" viewBox="0 0 22 22">
 <defs>
  <style id="current-color-scheme" type="text/css">
   .ColorScheme-Text { color:#444444; } .ColorScheme-Highlight { color:#4285f4; }
  </style>
 </defs>
 <path style="fill:currentColor" class="ColorScheme-Text" d="M 2 1 C 2 1 1.9237594 1.0041375 1.8183594 1.0234375 C 1.6141594 1.0536375 1.4597031 1.1268625 1.3457031 1.2265625 C 1.3236031 1.2434625 1.30225 1.26165 1.28125 1.28125 C 1.26165 1.30225 1.2435625 1.3236031 1.2265625 1.3457031 C 1.1269625 1.4597031 1.0536375 1.6141594 1.0234375 1.8183594 C 1.0041375 1.9237594 1 2 1 2 L 1 14 C 1 15 2 15 2 15 L 14 15 C 14 15 15 15 15 14 L 15 2 C 15 2 14.995563 1.9237594 14.976562 1.8183594 C 14.945562 1.6141594 14.873437 1.4597031 14.773438 1.3457031 C 14.757437 1.3236031 14.73775 1.30225 14.71875 1.28125 C 14.69775 1.26165 14.676297 1.2434625 14.654297 1.2265625 C 14.540297 1.1268625 14.385641 1.0536375 14.181641 1.0234375 C 14.075641 1.0041375 14 1 14 1 L 2 1 z M 3 4 L 6 4 L 6 10 L 3 10 L 3 4 z M 7 5 L 9 5 L 9 6 L 7 6 L 7 5 z M 11 5 L 11 8 L 13 8 L 10 12 L 10 9 L 8 9.0820312 L 11 5 z" transform="translate(3 3)"/>
</svg>
